!!!OTL: ES WOLLT EIN KOENIG WOHL REISEN
!!!ARE: Europa, Mitteleuropa, Deutschland
!!!SCT: F0873
!!!YEM: Copyright 1995, estate of Helmut Schaffrath.
**kern
*ICvox
*Ivox
*M6/8
*k[b-]
*F:
{8a
=1
4cc
8cc
8cc
8a
8cc
=2
4.a
4f}
{8f
=3
4g
8g
4e
8e
=4
4f
8a
4cc}
{8a
=5
4cc
8a
4cc
8a
=6
4cc
8a
4g}
{8g
=7
4g
8g
8g
8f
8g
=8
4a
8cc
4a}
==
!!!AGN: erzaehlendes Volks - Lied, Ballade
!!!ONB: ESAC (Essen Associative Code) Database: FINK
!!!AMT: compound duple
!!!AIN: vox
!!!EED: Helmut Schaffrath
!!!EEV: 1.0
*-
